X:1
T:Are You Listening?
T:Are You Listening?
T:William S. Marshall
T:William S. Marshall, 1876
T:Public Domain Courtesy of the Cyber Hymnal™
C:William S. Marshall
Z:Public Domain
Z:Courtesy of the Cyber Hymnal™
%%score ( 1 2 ) ( 3 4 )
L:1/8
Q:1/4=105
M:3/4
K:Bb
V:1 treble 
V:2 treble 
V:3 bass 
V:4 bass 
V:1
 [B,D]>[CE] | (F>B) [DB]2 [Fd]>[Fc] | ([GB]>[EG]) [GB]2 [FA]>[EG] | [DF]3 [B,D] [DF][DB] | %4
w: 1.~Do you|hear * the Sav- ior|call- * ing, By the|woo- ings of His|
w: 2.~By the|word * of truth He’s|speak- * ing To the|wan- dering, err- ing|
w: 3.~In His|pro- * vi- den- tial|deal- * ings, Ev- en|in His stern de-|
 [Fc]4 [FA]>[EG] | (F>B) [DB]2 [Fd]>[Fc] | ([GB]>[EG]) [GB]2 [FA][EG] | [DF]3 [DB] [EA][Ec] | %8
w: voice? Do you|hear * the ac- cents|fall- * ing? Will you|make the pre- cious|
w: ones; List! the|voice * the still- ness|break- * ing! Hear the|sweet and sol- emn|
w: crees, In the|loud- * est thun- ders|peal- * ing, Or the|mur- m’ring of the|
 [DB]4 ||"^Refrain" [B,D]>[CE] | [DF]>[B,D] [DF]2 [DB]>[FA] | [EG]>E [EG]2 [GB][EG] | %12
w: choice?||||
w: tones!|Are you|list- en- ing? Are you|list- en- ing? Now, to|
w: breeze.||||
 [DF]3 [B,D] [DF][DB] | [Ec]4 [EA]>[EG] | [DF]>[B,D] [DF]2 [DB]>[FA] | [EG]>E [EG]2 [GB][EG] | %16
w: ||||
w: hear the ac- cents|fall? Are you|list- en- ing? Are you|list- en- ing To the|
w: ||||
 [DF]3 [DF] [EA][Ec] | [DB]4 |] %18
w: ||
w: Sav- ior’s gen- tle|call?|
w: ||
V:2
 x2 | D2 x4 | x6 | x6 | x6 | D2 x4 | x6 | x6 | x4 || x2 | x6 | x6 | x6 | x6 | x6 | x6 | x6 | x4 |] %18
V:3
 [B,,F,]>[B,,F,] | (B,>F,) [B,,F,]2 [B,,B,]>[B,,D] | [E,E]2 [E,E]2 [E,B,]>[E,B,] | %3
 [B,,B,]3 [B,,F,] [B,,B,][B,,B,] | [F,A,]4 [F,C]>[F,A,] | (B,>F,) [B,,F,]2 [B,,B,]>[B,,D] | %6
 [E,E]2 [E,E]2 [E,B,][E,B,] | [F,B,]3 [F,B,] [F,C][F,A,] | [B,,B,]4 || [B,,F,]>[B,,F,] | %10
 [B,,B,]>[B,,F,] [B,,B,]2 [B,,B,]>[B,,B,] | [E,B,]>[E,G,] [E,B,]2 [E,B,][E,B,] | %12
 [B,,B,]3 [B,,F,] [B,,B,][B,,B,] | [F,A,]4 [F,C]>[F,A,] | %14
 [B,,B,]>[B,,F,] [B,,B,]2 [B,,B,]>[B,,B,] | [E,B,]>[E,G,] [E,B,]2 [E,B,][E,B,] | %16
 [F,B,]3 [F,B,] [F,C][F,A,] | [B,,F,B,]4 |] %18
V:4
 x2 | B,,2 x4 | x6 | x6 | x6 | B,,2 x4 | x6 | x6 | x4 || x2 | x6 | x6 | x6 | x6 | x6 | x6 | x6 | %17
 x4 |] %18

